X:0646
T:Soldier's Dance after the Battle
M:C
L:1/8
Q:1/2=96
I: :: ||
Z:Jack Campin * www.campin.me.uk * 2009
K:G
e|dG (e/d/c/B/) dGGe|dBgB dAAB|dG (e/d/c/B/) dGBg         |fefd g2g:|
e|dBgB          dgBg|dBgB dAAB|dBgB          dgBg         |fdfd g2g
e|dG (e/d/c/B/) dGGe|dBgB dAAB|dG (e/d/c/B/) dG (d/b/a/g/)|fefd g2g|]
<end>
<start>
